media/icons/block1/Замер.svg

<svg width="65" height="65" viewBox="0 0 65 65" fill="none" xmlns="http://www.w3.org/2000/svg">
<path d="M62.9597 58.1569L54.1667 49.4181V15.7986L50.0139 8.16111C49.7076 7.57881 49.2479 7.09128 48.6847 6.75117C48.1215 6.41106 47.476 6.2313 46.8181 6.2313C46.1601 6.2313 45.5146 6.41106 44.9514 6.75117C44.3882 7.09128 43.9286 7.57881 43.6222 8.16111L39.7222 15.8167V35.0458L6.69861 2.18472C6.44607 1.93008 6.12342 1.75642 5.77179 1.68588C5.42016 1.61534 5.05549 1.65111 4.72427 1.78863C4.39305 1.92615 4.11029 2.1592 3.91204 2.45805C3.71379 2.75691 3.60903 3.10803 3.61111 3.46666V18.0555H7.52917V20.9444H3.61111V32.5H7.52917V35.3889H3.61111V47.3958H7.52917V50.2847H3.61111V59.4389C3.61111 59.9177 3.80134 60.377 4.13995 60.7156C4.47856 61.0542 4.93781 61.2444 5.41667 61.2444H61.6778C62.0364 61.2465 62.3875 61.1418 62.6864 60.9435C62.9852 60.7453 63.2183 60.4625 63.3558 60.1313C63.4933 59.8001 63.5291 59.4354 63.4586 59.0838C63.388 58.7321 63.2144 58.4095 62.9597 58.1569ZM18.0556 46.9444V30.5861L34.4319 46.9444H18.0556ZM50.5556 50.7542H43.3333V46.3667H50.5556V50.7542ZM50.5556 43.5319H43.3333V16.7014L46.8361 9.89444L50.5556 16.7194V43.5319Z" fill="#378BC5"/>
</svg>

<svg xmlns="http://www.w3.org/2000/svg" width="65" height="65" fill="none" viewBox="0 0 65 65"><path fill="#378bc5" d="m62.96 58.157-8.793-8.739v-33.62l-4.153-7.637a3.611 3.611 0 0 0-6.392 0l-3.9 7.656v19.229L6.7 2.185a1.805 1.805 0 0 0-3.09 1.282v14.588h3.92v2.89H3.611V32.5H7.53v2.889H3.611v12.007H7.53v2.889H3.611v9.154a1.806 1.806 0 0 0 1.806 1.805h56.26a1.805 1.805 0 0 0 1.283-3.087M18.056 46.944V30.586l16.376 16.358zm32.5 3.81h-7.223v-4.387h7.223zm0-7.222h-7.223v-26.83l3.503-6.808 3.72 6.825z"/></svg>
